!!!COM:	Du Fay, Guillaume
!!!CDT:	~1397/08/05/-1474/11/27
!!!OTL:	Resvelons nous resvelons amoureux / Alons en bien tos au may
!!!AGN:	Song; Chanson
!!!SCT:	Duf3069
!!!SCA:	Duf3069
!!!voices:	3
**kern	**text	**kern	**text	**kern	**text
*staff3	*staff3	*staff2	*staff2	*staff1	*staff1
*Ivox	*	*Ivox	*	*Ivox	*
*I"Tenor	*	*I"Contratenor	*	*I"Cantus	*
*I'T	*	*I'Ct	*	*I'Cn	*
*clefF4	*	*clefGv2	*	*clefG2	*
*k[]	*	*k[]	*	*k[]	*
*M3/1	*	*M3/1	*	*M3/1	*
*met(O|)	*	*met(O|)	*	*met(O|)	*
*MM520	*	*MM520	*	*MM520	*
=1-	=1-	=1-	=1-	=1-	=1-
!	!	!	!	!LO:TX:X=-50:Z=21:t=(mensuration signs should be in brackets)	!
!	!	!LO:TX:Z=8:t=Ct-->T in quasi canon at the lower 5th (1 breve)	!	!	!
0.r	.	0c	A-	1g	Res-
.	.	.	.	1g	-ve-
.	.	1d	-lons	2f/	-lons
.	.	.	.	2g/	.
=2	=2	=2	=2	=2	=2
0F	A-	0c	ent	1a	nous,
.	.	.	.	2g/	res-
.	.	.	.	1f	-ve-
1G	-lons	1B	bien	.	.
.	.	.	.	2e/	-lons,
=3	=3	=3	=3	=3	=3
0F	ent	0A	tos	0d	a-
1E	bien	1G	au	1c#i	-mou-
=4	=4	=4	=4	=4	=4
0D	tos	0.A	may.	1d	-reux:
.	.	.	.	1r	.
1C	au	.	.	1e	A-
=5	=5	=5	=5	=5	=5
0.D	may.	0.r	.	0f	-lons
.	.	.	.	1d	au
=6	=6	=6	=6	=6	=6
0.r	.	0c	A-	0e	bois
.	.	1d	-lons	1d	tan-
=7	=7	=7	=7	=7	=7
0F	A-	0c	ent	1A	-tost
.	.	.	.	2r	.
.	.	.	.	2A/	Cueil-
1G	-lons	1B	bien	2B/	.
.	.	.	.	2c/	.
=8	=8	=8	=8	=8	=8
0F	ent	0A	tos	2d/	-lir
.	.	.	.	2e/	.
.	.	.	.	2d/	.
.	.	.	.	2d/	le
1E	bien	1G	au	2c#i/	.
.	.	.	.	2B/	.
=9	=9	=9	=9	=9	=9
0D	tos	0.A	may.	1d;	may,
.	.	.	.	1r	.
1C	au	.	.	1r	.
=10	=10	=10	=10	=10	=10
0.D	may.	0.r	.	1a	Et
.	.	.	.	1a	chan-
.	.	.	.	1a	-te-
=11	=11	=11	=11	=11	=11
0.r	.	0c	A-	1g	-rons
.	.	.	.	1cc	chas-
.	.	1d	-lons	1b	-cun
=12	=12	=12	=12	=12	=12
0F	A-	0c	ent	2a/	un
.	.	.	.	2g/	.
.	.	.	.	2f/	.
.	.	.	.	1e	vi-
1G	-lons	1B	bien	.	.
.	.	.	.	2d/	-re-
=13	=13	=13	=13	=13	=13
0F	ent	0A	tos	1f	-lay
.	.	.	.	1r	.
1E	bien	1G	au	1g	Pour
=14	=14	=14	=14	=14	=14
0D	tos	0.A	may.	0f	sa
1C	au	.	.	1e	.
=15	=15	=15	=15	=15	=15
0.D	may.	0.r	.	1.d	da-
.	.	.	.	2c/	.
.	.	.	.	2d/	.
.	.	.	.	2B/	.
=16	=16	=16	=16	=16	=16
0.r	.	0c	A-	1A	-me,
.	.	.	.	1r	.
.	.	1d	-lons	1a	s'en
=17	=17	=17	=17	=17	=17
0F	A-	0c	ent	2a/	se-
.	.	.	.	2g/	.
.	.	.	.	1f	.
1G	-lons	1B	bien	1e	-rons
=18	=18	=18	=18	=18	=18
0F	ent	0A	tos	0d	plus
1E	bien	1G	au	1c#i	joi-
=19	=19	=19	=19	=19	=19
0D	tos	0.A	may.	0d	-eux.
1C	au	.	.	1e	.
=20	=20	=20	=20	=20	=20
0.D	may.	0.r	.	1.f	.
.	.	.	.	2e/	.
.	.	.	.	2f/	.
.	.	.	.	2g/	.
=21	=21	=21	=21	=21	=21
0E	.	0G	.	2e/	.
.	.	.	.	2f/	.
.	.	.	.	2d/	.
.	.	.	.	2c#i/	.
1E	.	1G	.	2c#i/	.
.	.	.	.	2B/	.
=22	=22	=22	=22	=22	=22
0.Dl	.	0.Al	.	0.dl	.
==	==	==	==	==	==
*-	*-	*-	*-	*-	*-
!!!RDF**kern: l=long note in original notation
!!!RDF**kern: i=editorial accidental
!!!ENC:	Alejandro Planchart
!!!END:	2016/03/17/
!!!EED:	Jesse Rodin
!!!EEV:	2016/03/18/
!!!ONB:	Translated from SCORE and edited on 2016/03/18/ by Craig Sapp
!!muse2ps: C^@{COM}^i2I150v115,115,180z18c95t300
